packages/icons/svgs/duotone/Source=chemistry.svg

<svg width="24" height="24" viewBox="0 0 24 24" fill="none" xmlns="http://www.w3.org/2000/svg">
<path opacity="0.5" fill-rule="evenodd" clip-rule="evenodd" d="M5 1C5 0.447715 5.44772 0 6 0H18C18.5523 0 19 0.447715 19 1V5C19 5.55228 18.5523 6 18 6H6C5.44772 6 5 5.55228 5 5V1ZM7 2V4H17V2H7Z" fill="black" style="fill:black;fill-opacity:1;"/>
<path fill-rule="evenodd" clip-rule="evenodd" d="M9 7C9.55228 7 10 7.44772 10 8V13C10 13.2271 9.9227 13.4474 9.78083 13.6247L5.02983 19.5627C4.85331 19.7833 4.74263 20.0493 4.71062 20.33C4.67861 20.6107 4.72652 20.8948 4.84884 21.1494C4.97115 21.4041 5.16291 21.619 5.40201 21.7695C5.64101 21.9199 5.91761 21.9998 6.2 22H17.8C18.0826 22.0001 18.3599 21.9204 18.5992 21.77C18.8385 21.6196 19.0304 21.4047 19.1529 21.15C19.2754 20.8953 19.3234 20.6111 19.2914 20.3303C19.2594 20.0496 19.1488 19.7835 18.9723 19.5629L14.2193 13.6249C14.0773 13.4476 14 13.2272 14 13V8C14 7.44772 14.4477 7 15 7C15.5523 7 16 7.44772 16 8V12.6491L20.5337 18.3131C20.9457 18.828 21.204 19.4489 21.2786 20.1041C21.3532 20.7593 21.2411 21.4223 20.9554 22.0166C20.6696 22.6109 20.2218 23.1124 19.6635 23.4633C19.1053 23.8142 18.4593 24.0002 17.8 24H6.2C5.54079 23.9997 4.89467 23.8133 4.33675 23.4622C3.77883 23.1111 3.33141 22.6096 3.04601 22.0153C2.7606 21.4211 2.64881 20.7584 2.7235 20.1034C2.79819 19.4485 3.05632 18.8279 3.46817 18.3133L8 12.6492V8C8 7.44772 8.44771 7 9 7Z" fill="black" style="fill:black;fill-opacity:1;"/>
</svg>

<svg xmlns="http://www.w3.org/2000/svg" width="24" height="24" viewBox="0 0 24 24"><path fill-rule="evenodd" d="M5 1a1 1 0 0 1 1-1h12a1 1 0 0 1 1 1v4a1 1 0 0 1-1 1H6a1 1 0 0 1-1-1zm2 1v2h10V2z" clip-rule="evenodd" opacity=".5"/><path fill-rule="evenodd" d="M9 7a1 1 0 0 1 1 1v5a1 1 0 0 1-.22.625l-4.75 5.938A1.5 1.5 0 0 0 6.2 22h11.6a1.501 1.501 0 0 0 1.172-2.437l-4.753-5.938A1 1 0 0 1 14 13V8a1 1 0 1 1 2 0v4.65l4.534 5.663A3.5 3.5 0 0 1 17.8 24H6.2a3.502 3.502 0 0 1-3.476-3.897 3.5 3.5 0 0 1 .744-1.79L8 12.65V8a1 1 0 0 1 1-1" clip-rule="evenodd"/></svg>
